public/img/chulakov.svg

<svg width="140" height="16" viewBox="0 0 140 16" fill="none" xmlns="http://www.w3.org/2000/svg">
<g clip-path="url(#clip0_538_756)">
<path d="M15.2854 9.91032H10.8706C10.8514 10.27 10.7612 10.622 10.6052 10.9452C10.4492 11.2684 10.2308 11.556 9.96303 11.7909C9.69321 12.0277 9.37988 12.2073 9.0413 12.3193C8.70272 12.4313 8.34567 12.4734 7.99096 12.4432C5.87044 12.4432 4.68164 10.8605 4.68164 8.0654V7.89555C4.68164 5.07832 5.93682 3.51771 7.93061 3.51771C8.26355 3.49061 8.59839 3.53403 8.91409 3.64523C9.22979 3.75642 9.51952 3.933 9.76509 4.16386C10.2599 4.63032 10.5351 5.28386 10.5279 5.96571H15.0935C14.7254 1.87094 11.9339 0.0087856 7.91009 0.0087856C6.86577 -0.0437437 5.82207 0.124401 4.84448 0.502668C3.8669 0.880935 2.97652 1.46116 2.22923 2.20694C1.48725 2.94679 0.905953 3.83734 0.522987 4.8209C0.140022 5.80446 -0.0360669 6.85909 0.00612752 7.91648V8.08879C0.00612752 12.8371 2.66854 16.0002 8.08027 16.0002C12.0835 16.0002 14.9837 13.9152 15.2854 9.91032ZM23.7904 15.7392V9.63463H28.8763V15.7392H33.308V0.246324H28.8763V6.16263H23.7892V0.246324H19.331V15.7343L23.7904 15.7392ZM51.9594 9.39094V0.246324H47.4794V9.19648C47.4794 11.5152 46.8892 12.5109 45.056 12.5109C43.1732 12.5109 42.6313 11.45 42.6313 9.26048V0.246324H38.2008V9.45494C38.1972 13.7897 40.6834 16.0002 45.0572 16.0002C49.3211 16.0002 51.9606 13.8968 51.9606 9.39094H51.9594ZM67.1349 15.7392V12.2943H61.2911V0.245093H56.8329V15.7343L67.1349 15.7392ZM77.7689 3.84386L79.4585 9.80079H76.0611L77.7689 3.84386ZM70.2366 15.7405H74.3727L75.1946 12.8592H80.3239L81.1458 15.7392H85.8418L80.9298 0.254939H75.1946L70.2366 15.7417V15.7405ZM93.8218 15.7405V9.26171L98.2801 15.7405H103.408L97.4449 7.44017L103.114 0.246324H98.478L93.8242 6.37925V0.246324H89.3684V15.7343L93.8206 15.7405H93.8218ZM121.561 7.98417V7.81063C121.561 2.99832 118.084 0.0297087 113.364 0.0297087C112.305 -0.0353399 111.244 0.121437 110.247 0.49038C109.249 0.859322 108.337 1.43262 107.565 2.17494C106.799 2.91205 106.191 3.80377 105.782 4.79332C105.372 5.78288 105.169 6.84859 105.185 7.92263V8.09494C105.187 12.7485 108.302 16.0002 113.302 16.0002C118.296 16.0014 121.561 12.7509 121.561 7.98417ZM109.811 8.07032V7.89555C109.811 5.07832 111.173 3.49802 113.355 3.49802C115.536 3.49802 116.928 5.12263 116.928 7.87586V8.04817C116.941 10.8211 115.575 12.5109 113.388 12.5109C111.24 12.5109 109.81 10.8863 109.81 8.07032H109.811ZM128.892 15.7405H133.925L138.996 0.253709H134.842L131.679 11.1239L128.541 0.253709H123.77L128.892 15.7405Z" fill="white"/>
</g>
<defs>
<clipPath id="clip0_538_756">
<rect width="140" height="16" fill="white"/>
</clipPath>
</defs>
</svg>

<svg width="140" height="16" fill="none" xmlns="http://www.w3.org/2000/svg"><g clip-path="url(#a)"><path d="M15.285 9.91h-4.414c-.02.36-.11.712-.266 1.035a2.666 2.666 0 0 1-2.614 1.498c-2.12 0-3.31-1.582-3.31-4.378v-.17c0-2.817 1.256-4.377 3.25-4.377.333-.027.667.016.983.127.316.111.606.288.851.519.495.466.77 1.12.763 1.802h4.566C14.725 1.87 11.934.009 7.91.009a7.454 7.454 0 0 0-3.066.494A7.572 7.572 0 0 0 .523 4.82a7.69 7.69 0 0 0-.517 3.095v.173C.006 12.837 2.67 16 8.08 16c4.004 0 6.904-2.085 7.205-6.09Zm8.505 5.83V9.634h5.086v6.104h4.432V.246h-4.432v5.917H23.79V.246h-4.458v15.488l4.46.005Zm28.17-6.35V.247h-4.48v8.95c0 2.32-.59 3.315-2.424 3.315-1.883 0-2.425-1.061-2.425-3.25V.245h-4.43v9.209C38.197 13.79 40.683 16 45.057 16c4.264 0 6.904-2.103 6.904-6.61h-.002Zm15.175 6.35v-3.446H61.29V.245h-4.458v15.49l10.302.004ZM77.769 3.843l1.69 5.957H76.06l1.708-5.957ZM70.237 15.74h4.136l.822-2.882h5.129l.822 2.88h4.696L80.93.255h-5.735l-4.958 15.487v-.002Zm23.585 0V9.26l4.458 6.48h5.128l-5.963-8.3 5.669-7.195h-4.636L93.824 6.38V.246h-4.456v15.488l4.453.007Zm27.739-7.757v-.173c0-4.813-3.477-7.781-8.197-7.781a7.63 7.63 0 0 0-3.117.46 7.744 7.744 0 0 0-4.465 4.303 7.871 7.871 0 0 0-.597 3.13v.172c.002 4.653 3.117 7.905 8.117 7.905 4.994.001 8.259-3.25 8.259-8.016Zm-11.75.086v-.174c0-2.818 1.362-4.398 3.544-4.398 2.181 0 3.573 1.625 3.573 4.378v.172c.013 2.773-1.353 4.463-3.54 4.463-2.148 0-3.578-1.625-3.578-4.44h.001Zm19.081 7.67h5.033L138.996.255h-4.154l-3.163 10.87-3.138-10.87h-4.771l5.122 15.487Z" fill="#fff"/></g><defs><clipPath id="a"><path fill="#fff" d="M0 0h140v16H0z"/></clipPath></defs></svg>
